X:118
M:4/4
T:Elzic's Farewell
R:reel
K:Am
"Am"e4e2d2|c3dcA2 | a4a2 e^f|"G"g2ga g^fe2 | 
"Am"e4e2d2|c3dBA2 | A2c2"(D)"d2e2|"G(Em) - (G)"EGAB"Am"A4 :|
"Am"A4A2c2 |"D" d6Ac | d2de dcAc | d2de dcAc|
"Am"A4A2c2 | "D"d6Ac | d2de dcAc | d2de dcAc:| A4|]
